X: 12
T: a House a Fire
%C: Mr. Gray
%R: reel
B: Mr. Gray "24 Country Dances for the Year 1803" p.6 #2
S: http://imslp.org/wiki/24_Country_Dances_for_the_Year_1803_(Various)  2013-12-2
Z: 2013 John Chambers <jc:trillian.mit.edu>
M: 2/4
L: 1/16
K: Bb
|:\
B4 (dB)ec | f2f2 edcB | G4 (ed).c.B | A2F2 F4 |
B4 ({e}dc).e.=e | f2f2 gabg | {b}a2(gf) c2(d=e) | f2F2 F4 :|
|:\
fedc B_AGF | G2E2 E2ef | gf=ed cBAG | A2F2 F2GA |
BFBd cAce | dBdf egbg | .f(dcB) F2(Bc) | d2B2 B4 :|
% - - - - - - - - - - - - - - - - - - - - - - - - -
%%begintext align
%% Foot it, change sides, & back again :| lead down
%% 4 Cu: up again & cast off :|: hands 6 round & back
%% again :| chain pousette with top & bottom Cu:
%%endtext
